X: 2
T: Rasputin
R: shottish
Z: John Chambers <jc@trillian.mit.edu>
M: C
L: 1/8
K: Am
|: "Am"A2 Ac e2 e2 | "Dm"f2 fa "Am"e2 e2 | "E7"d2 d2 "Am"c2 c2 | "E7"B2 e2 ed cB | "Am"A2 Ac e2 e2 |
| "Dm"f2 fa "Am"e2 e2 | "E7"dc B2 Bd cB | "Am"A2 c2 A2 z2 :: "G7"g2 g2 g3 f | "C"fe e"(#)"d e4 |
| "E7"e2 e2 e3 d | "Am"dc cB c4 | "Dm"fe de fe d2 | "Am"ed cd ed c2 | "E7"E2 ^DE c2 B2 | "Am"BA A^G A2 z2 :|
